X: 242
T: Hold the Fries! (jig)
C: BB 11/06
N: 082185
L: 1/8
M: 6/8
R: jig
Q: 340
K: G
A | "G"BGG "D"def | "G"gdc BAG | "F"A=FF cFF| "Dm"D=FA cBA |
"G"BGG "D"de^f | "G"gdc BAG | "F"=FGA cBA | "G"BGG G2 :|
d | "C" cBc "Am7"EGA |"G" Bdg g^fg | "F"=fed "C"cde | "G"dgg g2d|
"C" cBc "Am7"EGA|"G" Bdg gab | "F"ag=f "Dm"dcA | "G"BGG G2 :|
%%%%%%%%%%%%%%%%%%%%%%%%%%%%%%%%
